X:1
T:Title
%%score { ( 1 3 ) | 2 }
L:1/8
M:4/4
K:Eb
V:1 treble nm="Grand Piano"
V:3 treble 
V:2 bass 
V:1
 z4 z2[Q:1/4=96] EF | GGGG GGFE | z2 A2 z4 | [DB]2 [DF]2 [DF]2 (3[DF][EG][FA] |[M:3/4] G6 | %5
[M:1/4] EF |[M:4/4] GGGG GGFE | z2 A2 z4 | B2 F2 d2 (3cdc | [DB]6 z2 | %10
 [GB]>[Ge] [B,GB]>[CFA] [B,EG]2 (3[A,DF][B,EG][A,DF] | [G,CE]2 (3[CE-][B,DE-][A,CE-] E2 z2 | %12
 [DF]>[DF] [DF]>[EG] [FA]2 (3[FA][GB][Ac] | B6 z2 | [EGc]2 [EGc]>[EGc] [CEG]>[Ec] [Fd]>[Ge] | %15
 [Gd]4 [=B,DG]2 [B,DG]>[B,DF] | [CE]2 [Ec]2 [EB]2 (3[A,DF][B,EG][A,DF] |[M:3/4] [G,E]6 |] %18
V:2
 z4 z2 [E,G,][E,A,D] | [E,B,E][E,B,E][E,B,E][E,B,E] [E,B,_D][E,B,D][E,A,D][G,D] | %2
 [E,A,C]2 .[E,CE]2 [E,B,E]2 [E,B,E][E,G,B,] | [B,,F,]2 [B,,B,]2 [B,,B,]2 (3[B,,B,][B,,B,][B,,B,] | %4
[M:3/4] [E,B,E]6 |[M:1/4] [E,G,][E,A,D] | %6
[M:4/4] [E,B,E][E,B,E][E,B,E][E,B,E] [E,B,_D][E,B,D][E,A,D][G,D] | %7
 [E,A,C]2 .[E,CE]2 [E,B,E]2 [E,B,E][E,G,B,] | [F,D]2 [F,B,D]2 [F,B,F]2 (3[F,=A,E][F,B,F][F,E] | %9
 [B,,F,]6 z2 | E,>[E,G,] E,>E, E,2 (3B,,B,,B,, | C,2 (3A,,A,,A,, E,2 z2 | %12
 [B,,B,]>[B,,B,] [B,,B,]>[B,,B,] [B,,B,]2 (3[B,,B,][B,,B,][B,,B,] | %13
 [E,B,]2 (3[E,C][E,B,][E,G,] [E,B,]2 z2 | C,2 C,>C, C,>[C,G,] [C,G,]>[C,C] | [G,=B,]4 G,2 G,,>G,, | %16
 A,,2 [A,,A,]2 [B,,G,]2 (3B,,B,,B,, |[M:3/4] E,6 |] %18
V:3
 x8 | x8 | A2 z =B, G2 GG | x8 |[M:3/4] x6 |[M:1/4] x2 |[M:4/4] x8 | A2 z =B, G2 GG | x8 | x8 | %10
 x8 | z4 [G,B,]2 z2 | x8 | G2 (3AGE G2 z2 | x8 | x8 | x8 |[M:3/4] x6 |] %18

